assets/cheogram.svg

<svg width="128" height="128" viewBox="0 0 128 128" fill="none" xmlns="http://www.w3.org/2000/svg">
<g clip-path="url(#clip0)">
<rect width="128" height="128" fill="url(#paint0_linear)"/>
<path d="M-19.9999 67.9171C61.5424 78.7397 69.0585 19.8547 77.8688 -15.4586L-1.83026 -23.5237L-19.9999 67.9171Z" fill="url(#paint1_linear)"/>
<path d="M82.2373 56.2911C82.9773 33.3423 115.296 18.7894 138.494 35.1324L176.266 69.2758C142.064 112.363 69.2602 194.01 51.6603 175.903C29.6604 153.27 27.0391 109.448 49.9311 102.362C72.8231 95.2766 81.6097 75.7553 82.2373 56.2911Z" fill="#8F00FF" fill-opacity="0.8"/>
<ellipse cx="50.5422" cy="63.3697" rx="5.40571" ry="5.47375" fill="white"/>
<ellipse cx="65.986" cy="63.3697" rx="5.40571" ry="5.47375" fill="white"/>
<ellipse cx="81.4301" cy="63.3697" rx="5.40571" ry="5.47375" fill="white"/>
<path fill-rule="evenodd" clip-rule="evenodd" d="M66.1035 25.9225C55.9806 26.0082 46.1247 29.5353 38.5158 35.9277C30.8923 42.3325 26.02 51.2163 25.1526 60.8896C24.2835 70.5818 27.529 80.071 34.0565 87.4338C34.9439 88.4347 35.8821 89.3857 36.8663 90.2851C35.7675 94.2504 33.7217 96.8257 31.8959 98.329C31.1495 98.9436 31.3126 100.392 32.2709 100.519C36.3346 101.058 42.2646 100.706 46.6509 96.8488C50.7471 98.8033 55.2012 100.106 59.8222 100.687C69.8441 101.946 80.1116 99.7459 88.6006 94.4548C94.0726 91.0441 98.617 87.0601 101.798 81.8868C102.659 80.4859 102.047 78.693 100.579 77.9545L94.8672 75.0811C93.376 74.3309 91.5755 74.9609 90.6107 76.3245C88.5253 79.272 85.6411 81.6003 82.1148 83.7982C76.072 87.5647 68.6337 89.1887 61.3293 88.2709C54.0268 87.3534 47.601 83.9941 43.2464 79.0822C38.9157 74.1974 36.9124 68.1144 37.4575 62.0356C38.0043 55.9378 41.1047 50.0188 46.4118 45.5601C51.7337 41.0891 58.8097 38.4959 66.2215 38.4331C73.6329 38.3704 80.6187 40.8423 85.8081 45.1703C87.7808 46.8156 89.453 49.0733 90.7789 51.307C91.6296 52.7402 93.4314 53.3566 94.9208 52.6068L100.619 49.7385C102.09 48.9979 102.698 47.205 101.884 45.7741C99.7422 42.0075 96.9533 38.2665 93.6563 35.5169C86.0808 29.1989 76.2268 25.8368 66.1035 25.9225Z" fill="white"/>
</g>
<defs>
<linearGradient id="paint0_linear" x1="64" y1="0" x2="64" y2="128" gradientUnits="userSpaceOnUse">
<stop stop-color="#6F00C7"/>
<stop offset="1" stop-color="#8F00FF"/>
</linearGradient>
<linearGradient id="paint1_linear" x1="1.10839" y1="-9.30531" x2="124.827" y2="44.6382" gradientUnits="userSpaceOnUse">
<stop stop-color="#8F00FF"/>
<stop offset="1" stop-color="#8F00FF" stop-opacity="0"/>
<stop offset="1" stop-color="#8A01F6"/>
</linearGradient>
<clipPath id="clip0">
<rect width="128" height="128" fill="white"/>
</clipPath>
</defs>
</svg>

<svg xmlns="http://www.w3.org/2000/svg" width="128" height="128" fill="none"><g clip-path="url(#a)"><path fill="url(#b)" d="M0 0h128v128H0z"/><path fill="url(#c)" d="M-20 67.917C61.542 78.74 69.058 19.855 77.87-15.459l-79.7-8.065L-20 67.917Z"/><path fill="#8F00FF" fill-opacity=".8" d="M82.237 56.291c.74-22.949 33.059-37.502 56.257-21.159l37.772 34.144C142.064 112.363 69.26 194.01 51.66 175.903c-22-22.633-24.62-66.455-1.729-73.541 22.892-7.085 31.679-26.607 32.306-46.07Z"/><ellipse cx="50.542" cy="63.37" fill="#fff" rx="5.406" ry="5.474"/><ellipse cx="65.986" cy="63.37" fill="#fff" rx="5.406" ry="5.474"/><ellipse cx="81.43" cy="63.37" fill="#fff" rx="5.406" ry="5.474"/><path fill="#fff" fill-rule="evenodd" d="M66.103 25.922c-10.122.086-19.978 3.613-27.587 10.006-7.624 6.405-12.496 15.288-13.363 24.962-.87 9.692 2.376 19.181 8.904 26.544.887 1 1.825 1.952 2.81 2.851-1.1 3.965-3.145 6.54-4.971 8.044-.747.615-.583 2.063.375 2.19 4.064.539 9.994.187 14.38-3.67a43.084 43.084 0 0 0 13.171 3.838c10.022 1.259 20.29-.941 28.779-6.232 5.472-3.41 10.016-7.395 13.197-12.568.861-1.401.249-3.194-1.219-3.933l-5.712-2.873c-1.491-.75-3.291-.12-4.256 1.243-2.086 2.948-4.97 5.276-8.496 7.474-6.043 3.767-13.481 5.39-20.786 4.473-7.302-.918-13.728-4.277-18.083-9.189-4.33-4.885-6.334-10.968-5.788-17.046.546-6.098 3.647-12.017 8.954-16.476 5.322-4.47 12.398-7.064 19.81-7.127 7.41-.063 14.397 2.41 19.586 6.737 1.973 1.646 3.645 3.903 4.97 6.137.852 1.433 2.653 2.05 4.143 1.3l5.698-2.868c1.471-.741 2.079-2.534 1.265-3.965-2.142-3.767-4.93-7.508-8.228-10.257-7.575-6.318-17.43-9.68-27.553-9.595Z" clip-rule="evenodd"/></g><defs><linearGradient id="b" x1="64" x2="64" y1="0" y2="128" gradientUnits="userSpaceOnUse"><stop stop-color="#6F00C7"/><stop offset="1" stop-color="#8F00FF"/></linearGradient><linearGradient id="c" x1="1.108" x2="124.827" y1="-9.305" y2="44.638" gradientUnits="userSpaceOnUse"><stop stop-color="#8F00FF"/><stop offset="1" stop-color="#8F00FF" stop-opacity="0"/><stop offset="1" stop-color="#8A01F6"/></linearGradient><clipPath id="a"><path fill="#fff" d="M0 0h128v128H0z"/></clipPath></defs></svg>
